Catalina-dark/actions/16/document-preview.svg

<?xml version="1.0" encoding="UTF-8" standalone="no"?>
<svg
   xmlns:dc="http://purl.org/dc/elements/1.1/"
   xmlns:cc="http://creativecommons.org/ns#"
   xmlns:rdf="http://www.w3.org/1999/02/22-rdf-syntax-ns#"
   xmlns:svg="http://www.w3.org/2000/svg"
   xmlns="http://www.w3.org/2000/svg"
   xmlns:sodipodi="http://sodipodi.sourceforge.net/DTD/sodipodi-0.dtd"
   xmlns:inkscape="http://www.inkscape.org/namespaces/inkscape"
   width="16"
   height="16"
   viewBox="0 0 16 16"
   version="1.1"
   id="svg7"
   sodipodi:docname="document-preview.svg"
   inkscape:version="0.92.4 5da689c313, 2019-01-14">
  <metadata
     id="metadata11">
    <rdf:RDF>
      <cc:Work
         rdf:about="">
        <dc:format>image/svg+xml</dc:format>
        <dc:type
           rdf:resource="http://purl.org/dc/dcmitype/StillImage" />
      </cc:Work>
    </rdf:RDF>
  </metadata>
  <sodipodi:namedview
     pagecolor="#ffffff"
     bordercolor="#666666"
     borderopacity="1"
     objecttolerance="10"
     gridtolerance="10"
     guidetolerance="10"
     inkscape:pageopacity="0"
     inkscape:pageshadow="2"
     inkscape:window-width="640"
     inkscape:window-height="480"
     id="namedview9"
     showgrid="false"
     inkscape:zoom="14.75"
     inkscape:cx="6.8135593"
     inkscape:cy="8"
     inkscape:window-x="0"
     inkscape:window-y="26"
     inkscape:window-maximized="0"
     inkscape:current-layer="svg7" />
  <defs
     id="defs3">
    <style
       id="current-color-scheme"
       type="text/css">
   .ColorScheme-Text { color:#5c616c; } .ColorScheme-Highlight { color:#5294e2; }
  </style>
  </defs>
  <path
     style="fill:#f1f6f8;fill-opacity:0.8509804"
     class="ColorScheme-Text"
     d="M 2.84375 0.00390625 L 2.84375 0.005859375 C 2.5626502 0.049558305 2 0.23977026 2 0.93945312 L 2 13.064453 C 2 13.99743 3 13.998047 3 13.998047 L 10.5 13.998047 C 8.5670012 13.998047 7 12.431 7 10.498047 C 7 8.5650942 8.5670012 6.9980469 10.5 6.9980469 C 12.330799 6.9979528 13.852334 8.4088197 13.990234 10.234375 C 13.992234 8.0329289 13.993734 5.3914876 13.990234 3.7363281 L 9.9941406 0.00390625 L 3 0.00390625 C 3 0.00390625 2.9374249 -0.010646394 2.84375 0.00390625 z M 10.519531 7.7890625 C 9.0239312 7.7890625 7.8007812 9.0141656 7.8007812 10.509766 C 7.8007812 12.005366 9.0239313 13.228516 10.519531 13.228516 C 11.006631 13.228516 11.466771 13.080166 11.863281 12.853516 A 0.75008 0.75008 0 0 0 12.019531 13.072266 L 13.863281 14.884766 A 0.75130096 0.75130096 0 1 0 14.925781 13.822266 L 13.082031 12.009766 A 0.75008 0.75008 0 0 0 12.863281 11.853516 C 13.089931 11.457056 13.238281 10.996926 13.238281 10.509766 C 13.238281 9.0141656 12.015131 7.7890625 10.519531 7.7890625 z M 10.519531 8.7890625 C 11.474691 8.7890625 12.238281 9.5545556 12.238281 10.509766 C 12.238281 11.464926 11.474741 12.228516 10.519531 12.228516 C 9.5643713 12.228516 8.8007812 11.464976 8.8007812 10.509766 C 8.8007812 9.5546056 9.5643213 8.7890625 10.519531 8.7890625 z"
     id="path5" />
</svg>

<svg width="16" height="16" version="1.1" viewBox="0 0 16 16" xmlns="http://www.w3.org/2000/svg">
<defs>
<style id="current-color-scheme" type="text/css">.ColorScheme-Text { color:#5c616c; } .ColorScheme-Highlight { color:#5294e2; }</style>
</defs>
<path class="ColorScheme-Text" d="m2.8438 0.0039062v0.0019531c-0.2811 0.043699-0.84375 0.23391-0.84375 0.93359v12.125c0 0.93298 1 0.93359 1 0.93359h7.5c-1.933 0-3.5-1.567-3.5-3.5 0-1.933 1.567-3.5 3.5-3.5 1.8308-9.41e-5 3.3523 1.4108 3.4902 3.2363 2e-3 -2.2014 0.0035-4.8429 0-6.498l-3.9961-3.7324h-6.9941s-0.062575-0.014553-0.15625 0zm7.6758 7.7852c-1.4956 0-2.7187 1.2251-2.7187 2.7207 0 1.4956 1.2232 2.7188 2.7187 2.7188 0.4871 0 0.94724-0.14835 1.3438-0.375a0.75008 0.75008 0 0 0 0.15625 0.21875l1.8438 1.8125a0.7513 0.7513 0 1 0 1.0625-1.0625l-1.8438-1.8125a0.75008 0.75008 0 0 0-0.21875-0.15625c0.22665-0.39646 0.375-0.85659 0.375-1.3438 0-1.4956-1.2232-2.7207-2.7188-2.7207zm0 1c0.95516 0 1.7188 0.76549 1.7188 1.7207 0 0.95516-0.76354 1.7188-1.7188 1.7188-0.95516 0-1.7187-0.76354-1.7187-1.7188 0-0.95516 0.76354-1.7207 1.7187-1.7207z" fill="#dedede" fill-opacity=".85098"/>
</svg>
